X: 19
T: Sonata in G major, L.53, K.75
C: Domenico Scarlatti
%%abc-version 2.0
%%abcx-abcm2ps-target-version 5.9.1 (29 Sep 2008)
%%abc-creator hum2abc beta
%%abcx-conversion-date 2021/06/28 10:15:40
%%abc-copyright 2021 Craig Stuart Sapp
%%abc-edited-by Craig Stuart Sapp
%%abc-edited-by Craig Stuart Sapp
%%abcx-initial-encoding-date 2005/06/20
%%humdrum-veritas 3336050002
%%humdrum-veritas-data 1591187646
%%linebreak <none>
%%barnumbers 0
L: 1/4
M: 3/4
N: Derived from L053K075.krn
Q: "Allegro ([quarter]=168)" 1/4=168
%%staves {1 2}
V: 1 clef=treble
V: 2 clef=bass
K: G
[V:1] .g!trill!a3/g//a// | 
[V:2] [G,2B,2D2].[F,A,D] | 
[V:1] (3B/c/d/g2 | 
[V:2] [G,2B,2D2].[B,D] | 
[V:1] (3A/B/c/e2 | 
[V:2] [C2E2].[A,C] | 
[V:1] (3F/G/A/c2 | 
[V:2] [D,2A,2D2].[F,A,D] | 
[V:1] (3D/E/F/B2 | 
[V:2] [G,2B,2].[B,D] | 
[V:1] (3E/F/G/.e.d | 
[V:2] C,.C.[B,D] | 
[V:1] (3A/B/^c/.g.f | 
[V:2] z.[^CE].[DF] | 
[V:1] (3B/^c/d/.b.a | 
[V:2] z.[G,B,D].[F,A,D] | 
[V:1] (3^G/A/B/.=f.e | 
[V:2] !accent!D.D.=C & E,3 | 
[V:1] (3^G/A/B/.d.c | 
[V:2] B,.=F.E & E,3 | 
[V:1] (3^G/A/B/.=f.e | 
[V:2] z.D.C & E,3 | 
[V:1] (3^c/d/e/._b.a | 
[V:2] z.G,.=F, & A,,3 | 
[V:1] (3^c/d/e/.g.=f | 
[V:2] E,._B,.A, & A,,3 | 
[V:1] (3^c/d/e/._b.a | 
[V:2] z.G,.=F, & A,,3 | 
[V:1] (3g/^f/e/ (3e/d/^c/ (3c/B/A/ | 
[V:2] .!accent![A,,^C,E,]zz | 
[V:1] (3G/F/E/ (3E/D/^C/ (3C/B,/A,/ | 
[V:2] z3 | 
[V:1] z3 | 
[V:2] (3G,/F,/E,/ (3E,/D,/^C,/ (3C,/B,,/A,,/ | 
[V:1] !trill!g3/f//e// (3f/e/d/ | 
[V:2] .[A,,^C,E,A,].[C,E,A,].[D,F,A,] | 
[V:1] .b/d/.[Adf].[A^ce] | 
[V:2] .[G,,D,G,].[A,,D,A,].[A,,E,A,] | 
[V:1] !accent![F3A3d3] :|]|:  
[V:2] !accent![D,,3D,3] :|]|:  
[V:1] .d!trill!e3/d//e// | 
[V:2] [D,2F,2A,2].[^C,E,A,] | 
[V:1] (3f/g/a/=c2 | 
[V:2] [D,2F,2A,2].[F,A,D] | 
[V:1] (3B/c/d/=F2 | 
[V:2] [G,2B,2D2].[B,D] | 
[V:1] (3E/^F/G/.e.d | 
[V:2] C,.C.[B,D] | 
[V:1] (3F/G/A/.c.B | 
[V:2] z.[A,C].[G,B,] | 
[V:1] (3g/a/b/.^c.d | 
[V:2] z.[E,G,^C].[F,A,D] | 
[V:1] (3G/A/B/.^C.D | 
[V:2] z.[G,A,].[F,A,] | 
[V:1] (3=C/D/E/ (3F/G/A/ (3A/B/c/ | 
[V:2] [E,2G,2].[E,G,C] | 
[V:1] (3c/d/e/ (3f/g/a/ (3a/b/c'/ | 
[V:2] .[D,G,A,C]zz | 
[V:1] !trill!c'3/_b//a// (3b/a/g/ | 
[V:2] .[D,G,A,C].[D,F,A,D].[D,G,_B,D] | 
[V:1] (3^f/g/a/ (3_e/d/c/ (3_B/A/G/ | 
[V:2] .[D,G,A,C].[D,F,A,D].[D,G,_B,D] | 
[V:1] (3^F/G/A/._e.d | 
[V:2] !accent![G,A,C].[A,C].[G,_B,] & D,3 | 
[V:1] (3F/G/A/.c._B | 
[V:2] A,._E.D & D,3 | 
[V:1] (3F/G/A/._e.d | 
[V:2] z.C._B, & D,3 | 
[V:1] (3=B/c/d/._a.g | 
[V:2] z.=F,._E, & G,,3 | 
[V:1] (3B/c/d/.=f._e | 
[V:2] z.D,.C, & G,,3 | 
[V:1] (3^c/d/=e/._b.a | 
[V:2] z.G,.=F, & A,,3 | 
[V:1] (3^c/d/e/.g.^f | 
[V:2] z.E,.[D,^F,] & A,,3 | 
[V:1] (3c'/b/a/ (3a/g/f/ (3f/e/d/ | 
[V:2] .D,zz | 
[V:1] (3c/B/A/ (3A/G/F/ (3F/E/D/ | 
[V:2] z3 | 
[V:1] z3 | 
[V:2] (3C/B,/A,/ (3A,/G,/F,/ (3F,/E,/D,/ | 
[V:1] c'3/b//a// (3b/a/g/ | 
[V:2] .[D,A,D].[F,A,D].[G,B,D] | 
[V:1] [egc'].[dgb].[dfa] | 
[V:2] .[C,G,C].[D,G,D].[D,A,D] | 
[V:1] !accent![B3d3g3] :|]  
[V:2] !accent![G,,3D,3G,3] :|]  


